src/assets/img/Home/icons/CaseItem/mpf.svg

<svg width="23" height="28" viewBox="0 0 23 28" fill="none" xmlns="http://www.w3.org/2000/svg">
<g id="Frame" clip-path="url(#clip0_101_97)">
<g id="Group">
<path id="Vector" d="M13.6923 5.87815C13.7253 5.91664 13.7308 5.92764 13.7363 5.92764C14.2807 6.00462 14.5337 6.41154 14.8251 6.81845C15.1605 7.28035 15.5619 7.70376 15.9908 8.08868C17.1181 9.10596 17.8109 10.3377 18.0419 11.8389C18.4433 14.4673 16.9366 17.1672 14.4622 18.2175C10.7065 19.8122 6.51087 17.3872 6.07646 13.3291C5.84551 11.168 6.63734 9.3809 8.28699 7.9732C8.82037 7.5168 9.26578 6.98891 9.6342 6.38954C9.70019 6.27956 9.82116 6.19158 9.93664 6.13659C10.1236 6.04861 10.3326 5.99912 10.569 5.91664C10.492 5.82316 10.437 5.75718 10.3765 5.69119C10.0081 5.31177 9.6397 4.92136 9.26578 4.55293C9.13381 4.42096 9.07332 4.28349 9.07882 4.09653C9.08982 3.3157 9.08432 2.54037 9.08432 1.75953C9.08432 1.4461 9.46924 0.945707 9.78267 0.88522C10.1401 0.813735 10.5085 0.775243 10.8659 0.703759C10.9704 0.681763 11.0859 0.615777 11.1464 0.533295C11.6688 -0.170554 12.5871 -0.176053 13.104 0.522297C13.1754 0.615777 13.3129 0.687262 13.4284 0.714756C13.7583 0.786241 14.0937 0.824733 14.4292 0.88522C14.7646 0.951206 15.122 1.38561 15.122 1.72654C15.122 2.51287 15.1165 3.3047 15.1275 4.09103C15.133 4.29449 15.067 4.43196 14.9296 4.57493C14.5117 4.99834 14.1102 5.43275 13.6923 5.87815ZM11.3828 8.941C11.3663 9.00698 11.3498 9.04547 11.3553 9.07847C11.4268 9.44689 11.2564 9.60635 10.9154 9.74382C10.2666 10.0133 9.97513 10.5576 9.99162 11.256C10.0081 11.9488 10.382 12.3778 11.0089 12.6032C11.2838 12.7022 11.5698 12.7737 11.8447 12.8672C12.0977 12.9496 12.3506 13.0321 12.5926 13.1311C12.796 13.2136 12.9115 13.373 12.8895 13.604C12.8675 13.8404 12.719 13.9779 12.5101 14.0164C12.2956 14.0604 12.0647 14.0989 11.8612 14.0494C11.4653 13.9559 11.0859 13.7965 10.668 13.6535C10.481 13.9009 10.2666 14.1814 10.0081 14.5278C10.3985 14.6983 10.734 14.8742 11.0914 14.9952C11.2948 15.0612 11.3773 15.1492 11.3498 15.3581C11.3333 15.5066 11.3443 15.6606 11.3443 15.831C11.6578 15.831 11.9217 15.831 12.1857 15.831C12.5651 15.831 12.5816 15.831 12.5596 15.4406C12.5486 15.1987 12.6036 15.0667 12.8675 15.0337C13.005 15.0172 13.1424 14.9402 13.2689 14.8687C13.8518 14.5498 14.0937 14.0384 14.0827 13.3895C14.0717 12.7737 13.7638 12.3503 13.2139 12.1028C12.9665 11.9928 12.7025 11.9104 12.4386 11.8224C12.1087 11.7124 11.7787 11.6134 11.4488 11.4924C11.2454 11.4155 11.1629 11.2505 11.1794 11.0305C11.1959 10.8216 11.3223 10.6786 11.5148 10.6456C11.7457 10.6071 11.9932 10.5851 12.2186 10.6236C12.4936 10.6731 12.752 10.7996 13.0435 10.8986C13.2249 10.6181 13.4119 10.3212 13.6318 9.97477C13.3789 9.8593 13.1644 9.71633 12.9335 9.67784C12.6091 9.62285 12.5101 9.47438 12.5486 9.16645C12.5596 9.09496 12.4606 8.95199 12.4001 8.94649C12.0702 8.93 11.7238 8.941 11.3828 8.941Z" fill="#CAFF33"/>
<path id="Vector_2" d="M11.6795 27.9889C10.5082 27.9889 9.33146 27.956 8.16021 27.9999C7.37388 28.0274 6.70303 27.791 6.07066 27.3731C5.17435 26.7737 4.35503 26.0919 3.64018 25.278C2.58441 24.0738 1.51764 22.8695 0.461864 21.6653C-0.401451 20.6755 -0.0110345 19.2128 1.2207 18.8114C1.36367 18.7619 1.52864 18.7454 1.6771 18.7454C2.65589 18.7399 3.64018 18.7344 4.61897 18.7509C4.75644 18.7509 4.92141 18.8224 5.02039 18.9159C5.69124 19.5648 6.3511 20.2301 7.00546 20.8955C7.13743 21.0274 7.25841 21.0549 7.44537 21.0274C7.84128 20.967 8.2482 20.912 8.64961 20.912C10.5027 20.901 12.3503 20.9065 14.2034 20.9065C14.8358 20.9065 15.3032 21.2309 15.4681 21.7698C15.7211 22.5836 15.1272 23.3479 14.2199 23.3534C12.9937 23.3589 11.7619 23.3534 10.5357 23.3534C10.3158 23.3534 10.0958 23.3479 9.87585 23.3534C9.47993 23.3644 9.22149 23.6174 9.21599 23.9748C9.21599 24.3377 9.47443 24.6127 9.86485 24.6127C11.8169 24.6182 13.769 24.6182 15.7211 24.6127C16.117 24.6127 16.4029 24.3927 16.6779 24.1288C17.9536 22.9025 19.2293 21.6763 20.5106 20.4556C21.033 19.9552 21.7258 19.9332 22.2207 20.3786C22.7541 20.8625 22.7651 21.6433 22.2262 22.1877C21.6598 22.7651 21.0824 23.3094 20.5106 23.8648C19.2458 25.0911 17.9811 26.3118 16.7219 27.538C16.4139 27.835 16.073 27.9889 15.6386 27.9889C14.3189 27.9834 12.9992 27.9889 11.6795 27.9889Z" fill="#CAFF33"/>
<path id="Vector_3" d="M5.13576 4.75098C5.66915 5.28436 6.20253 5.81775 6.72492 6.34014C6.40049 6.66457 6.05956 7.00549 5.71864 7.34092C5.21274 6.81853 4.67936 6.26865 4.16797 5.74076C4.4704 5.43283 4.81133 5.08091 5.13576 4.75098Z" fill="#CAFF33"/>
<path id="Vector_4" d="M19.0203 4.75098C19.3448 5.07541 19.6802 5.42183 19.9936 5.73527C19.4712 6.25765 18.9269 6.80204 18.399 7.32442C18.08 7.00549 17.7446 6.65907 17.4092 6.32364C17.9316 5.81225 18.4705 5.28436 19.0203 4.75098Z" fill="#CAFF33"/>
<path id="Vector_5" d="M20.2851 13.4171C20.2851 12.9497 20.2796 12.5207 20.2906 12.0918C20.2906 12.0369 20.395 11.9379 20.45 11.9379C21.1209 11.9269 21.7862 11.9269 22.4571 11.9379C22.5121 11.9379 22.6166 12.0204 22.6166 12.0643C22.6276 12.5098 22.6221 12.9552 22.6221 13.4171C21.8357 13.4171 21.0769 13.4171 20.2851 13.4171Z" fill="#CAFF33"/>
<path id="Vector_6" d="M3.85461 13.4336C3.09577 13.4336 2.38642 13.4391 1.67157 13.4281C1.61659 13.4281 1.52861 13.3236 1.52311 13.2631C1.51211 12.8782 1.50661 12.4933 1.52311 12.1083C1.52311 12.0479 1.63308 11.9379 1.69357 11.9379C2.35343 11.9269 3.01329 11.9269 3.67315 11.9379C3.73363 11.9379 3.84361 12.0259 3.84361 12.0808C3.86011 12.5098 3.85461 12.9497 3.85461 13.4336Z" fill="#CAFF33"/>
</g>
</g>
<defs>
<clipPath id="clip0_101_97">
<rect width="22.6277" height="28" fill="white"/>
</clipPath>
</defs>
</svg>

<svg xmlns="http://www.w3.org/2000/svg" width="23" height="28" fill="none"><g fill="#CAFF33" clip-path="url(#a)"><path d="M13.692 5.878c.033.039.039.05.044.05.545.077.798.484 1.09.89.335.462.736.886 1.165 1.27 1.127 1.018 1.82 2.25 2.05 3.75.402 2.63-1.104 5.33-3.579 6.38-3.755 1.594-7.951-.83-8.386-4.889-.23-2.161.561-3.948 2.211-5.356A6.642 6.642 0 0 0 9.634 6.39a.715.715 0 0 1 .303-.253c.187-.088.396-.138.632-.22a5.49 5.49 0 0 0-.193-.226c-.368-.38-.736-.77-1.11-1.138a.575.575 0 0 1-.187-.456c.01-.781.005-1.557.005-2.337 0-.314.385-.814.699-.875.357-.071.726-.11 1.083-.181a.496.496 0 0 0 .28-.17c.523-.705 1.441-.71 1.958-.012a.613.613 0 0 0 .324.193c.33.071.666.11 1.001.17.336.066.693.5.693.842 0 .786-.005 1.578.005 2.364a.616.616 0 0 1-.197.484c-.418.423-.82.858-1.238 1.303Zm-2.31 3.063c-.016.066-.032.104-.027.137.072.369-.099.528-.44.666-.648.27-.94.814-.923 1.512.016.693.39 1.122 1.017 1.347.275.1.56.17.836.264.253.083.506.165.748.264.203.083.319.242.296.473a.436.436 0 0 1-.379.412c-.214.044-.445.083-.649.033-.396-.093-.775-.252-1.193-.396-.187.248-.401.528-.66.875.39.17.726.346 1.083.467.204.066.286.154.259.363-.017.149-.006.303-.006.473h.842c.38 0 .396 0 .374-.39-.011-.242.044-.374.307-.407.138-.017.275-.094.402-.165.583-.32.825-.83.814-1.48-.011-.615-.32-1.039-.87-1.286-.246-.11-.51-.193-.774-.28-.33-.11-.66-.21-.99-.33-.204-.078-.286-.242-.27-.463.017-.208.143-.351.336-.384.23-.039.478-.06.704-.022.275.05.533.176.825.275.18-.28.368-.578.588-.924-.253-.116-.468-.259-.698-.297-.325-.055-.424-.204-.385-.512.01-.071-.088-.214-.149-.22-.33-.016-.676-.005-1.017-.005ZM11.68 27.989c-1.172 0-2.349-.033-3.52.01-.786.028-1.457-.208-2.09-.626-.896-.6-1.715-1.281-2.43-2.095-1.056-1.204-2.122-2.409-3.178-3.613-.863-.99-.473-2.452.759-2.854.143-.05.308-.066.456-.066.979-.005 1.963-.01 2.942.006a.64.64 0 0 1 .401.165c.671.649 1.331 1.314 1.985 1.98.132.131.253.159.44.131.396-.06.803-.115 1.205-.115 1.853-.011 3.7-.005 5.553-.005.633 0 1.1.324 1.265.863.253.814-.34 1.578-1.248 1.583-1.226.006-2.458 0-3.684 0-.22 0-.44-.005-.66 0-.396.011-.655.264-.66.622 0 .363.258.638.649.638 1.952.005 3.904.005 5.856 0 .396 0 .682-.22.957-.484a1186.44 1186.44 0 0 1 3.833-3.673c.522-.5 1.215-.523 1.71-.077.533.483.544 1.264.005 1.809-.566.577-1.144 1.121-1.715 1.677-1.265 1.226-2.53 2.447-3.79 3.673-.307.297-.648.45-1.082.45-1.32-.005-2.64 0-3.96 0ZM5.136 4.751l1.589 1.59c-.325.324-.665.664-1.006 1l-1.551-1.6c.302-.308.643-.66.968-.99ZM19.02 4.751c.325.324.66.67.974.984-.523.523-1.067 1.067-1.595 1.59-.319-.32-.654-.666-.99-1.001.523-.512 1.062-1.04 1.611-1.573ZM20.285 13.417c0-.467-.005-.896.006-1.325 0-.055.104-.154.159-.154.67-.011 1.336-.011 2.007 0 .055 0 .16.082.16.126.01.446.005.891.005 1.353h-2.337ZM3.855 13.434c-.76 0-1.469.005-2.183-.006-.055 0-.143-.104-.149-.165a16.17 16.17 0 0 1 0-1.155c0-.06.11-.17.17-.17.66-.011 1.32-.011 1.98 0 .06 0 .17.088.17.143.017.429.012.869.012 1.353Z"/></g><defs><clipPath id="a"><path fill="#fff" d="M0 0h22.628v28H0z"/></clipPath></defs></svg>
